X:1
T:Toowoomba, LMD
T:Toowoomba, LMD
T:H. F. Willilams, 1881
T:Public Domain Courtesy of the Cyber Hymnal™
C:H. F. Willilams, 1881
Z:Public Domain
Z:Courtesy of the Cyber Hymnal™
%%score ( 1 2 ) ( 3 4 )
L:1/8
Q:1/4=105
M:4/4
K:F
V:1 treble 
V:2 treble 
V:3 bass 
V:4 bass 
V:1
 (FG) | [FA]2 [FA]2 [FA]2 [EG]2 | F3 [FG] [FA]2 (AB) | [Fc]3 [Fd] [Fc]2 [FA]2 | %4
 F2 F2 !fermata![EG]2 (cB) | [FA]2 [FA]2 [FA]2 [EG]2 | F3 [FG] [FA]2 ([FA][GB]) | %7
 [Ac]3 [Bd] [Ac]2 [FB]2 | [FA]2 [CG]2 !fermata![CF]2 ([FA][GB]) | [Ac]3 [Bd] [Ac]2 [FA]2 | %10
 F2 [EG]2 [FA]2 [FA]2 | [EB]3 [EB] [EB]2 [EG]2 | [FA]2 [FB]2 [Fc]2 (AB) | [Fc]3 [Fd] [Fc]2 [FA]2 | %14
 [FB]2 [Fc]2 !fermata![Fd]2 [Fd]2 | [Ac]3 [Bd] [Ac]2 [FB]2 |"^riten." [FA]2 [CG]2 !fermata![CF]2 |] %17
V:2
 F2 | x8 | F3 F2 x3 | x8 | F2 F2 E2 x2 | x8 | F3 x5 | x8 | x8 | x8 | F2 x6 | x8 | x6 F2 | x8 | x8 | %15
 x8 | x6 |] %17
V:3
 (A,B,) | [F,C]2 [F,C]2 [F,C]2 [C,B,]2 | [F,A,]3 [F,B,] [F,C]2 (CB,) | [F,A,]3 [F,B,] [F,A,]2 F,2 | %4
 [D,A,]2 [D,A,]2 !fermata![C,C]2 [C,C]2 | [F,C]2 [F,C]2 [F,C]2 [C,B,]2 | %6
 [F,A,]3 [F,B,] [F,C]2 [F,C]2 | [F,C]3 [F,C] [F,C]2 [B,,D]2 | [C,C]2 [C,B,]2 !fermata![F,A,]2 F,2 | %9
 F,3 F, F,2 F,2 | [D,A,]2 [C,C]2 [F,C]2 [F,C]2 | [G,C]3 [G,C] [G,C]2 [C,C]2 | %12
 [F,C]2 [G,C]2 [A,C]2 (CB,) | [F,A,]3 [F,B,] [F,A,]2 [_E,C]2 | [D,B,]2 [C,A,]2 [B,,B,]2 [B,,B,]2 | %15
 F,3 F, [F,C]2 [B,,D]2 | [C,C]2 [C,B,]2 !fermata![F,A,]2 |] %17
V:4
 F,2 | x8 | x6 F,2 | x6 F,2 | x8 | x8 | x8 | x8 | x6 F,2 | F,3 F, F,2 F,2 | x8 | x8 | x6 F,2 | x8 | %14
 x8 | F,3 F, x4 | x6 |] %17

